X:1
T:Title
%%score ( 1 2 ) ( 3 4 )
L:1/8
Q:1/4=83
M:3/4
K:C
V:1 treble nm="Drawbar Organ, Soprano"
V:2 treble 
V:3 bass nm="Church Organ, Plano, LMD"
V:4 bass 
V:1
 [EG] [Ec]3 [Ec][Ec]- | [Ec]/[EG]/[EG] [DF] [CE]3 | [EG] [FA]3 [FA][Ae]- | %3
w: By~Pluma~M.~Brown,~1897 * * *|||
 [Ae]/[Ad]/[Gc]- [Gc]/[GB]/ [GB]3 | [EG][E_B] [EB] [EB]3 | [CE][CF]- [CF]/[EG]/ [FA]3 | %6
w: |||
 [^FA][Fc] [Fc] [Fc]3 | [^FA][GB]- [GB]/[Gc]/ [Gd]3 | [FG] [EG]3 [EG][Ge] | %9
w: |||
 [Gc][FB]- [FB]/[FA]/ [EG]3 | [EG] [FA]3 [FA][Af] | e/d/[Gc] [=FB] [Ec]3- | [Ec]4 z2 |] %13
w: ||||
V:2
 x6 | x6 | x6 | x6 | x6 | x6 | x6 | x6 | x6 | x6 | x6 | .^F2 z2 z2 | x6 |] %13
V:3
 [C,G,] [C,G,]3 [C,G,][C,G,]- | [C,G,]/[C,G,]/[G,,G,] [G,,G,] [C,G,]3 | [C,C] [F,C]3 [F,C][^F,C]- | %3
 [F,C]/[^F,D]/[G,E]- [G,E]/[G,D]/ [G,D]3 | [C,C][C,C] [C,C] [C,C]3 | %5
 [G,_B,][F,A,]- [F,A,]/[F,B,]/ [F,C]3 | [D,D][D,D] [D,D] [D,D]3 | %7
 [D,D][G,D]- [G,D]/[G,C]/ [G,B,]3 | z C3 z2 | [E,C][F,C]- [F,C]/[A,C]/ C3 | z C3 z2 | .C2 z2 z2 | %12
 z6 |] %13
V:4
 x6 | x6 | x6 | x6 | x6 | x6 | x6 | x6 | .G,2 C,E, [G,C]C | x6 | .C2 F,,A,, [C,C][F,C] | %11
 D,/-[D,D]/[G,E] [G,D] [C,C]3- | [C,C]4 z2 |] %13

